X:1
T: Noreen MacLennan -- The St. John's Jig
C:Muriel A Johnstone
R:Jig
%Q:180
K:Em
M:6/8
L:1/16
B,2|E3GF2 E4B2|e3fg2 f3ga2|b3ag2 e3dB2|B3AG2 A4B2|E3GF2 E4B2|e3fg2 f3ga2|b3ag2 e3dB2|A4B2E6|
E3GF2 E4B2|e3fg2 f3ga2|b3ag2 e3dB2|B3AG2 A4B2|E3GF2 E4B2|e3fg2 f3ga2|b3ag2 e3dB2|A4B2E6|
g6e6|d3ed2 B3cd2|e3dc2 B3AG2|A3GA2 B6|g6e6|d3ed2 B3cd2|e3dc2 B3AG2|A4B2E6|
g6e6|d3ed2 B3cd2|e3dc2 B3AG2|A3GA2 B4B2|E3GF2 E4B2|e3fg2 f3ga2|b3ag2 e3dB2|A4B2E4||
